assets/images/icons/face-with-tears-of-joy.svg

<svg width="49" height="48" viewBox="0 0 49 48" fill="none" xmlns="http://www.w3.org/2000/svg">
<path d="M24.541 42.2858C34.6399 42.2858 42.8267 34.099 42.8267 24.0001C42.8267 13.9012 34.6399 5.71436 24.541 5.71436C14.4421 5.71436 6.25525 13.9012 6.25525 24.0001C6.25525 34.099 14.4421 42.2858 24.541 42.2858Z" fill="url(#paint0_radial_7_739)"/>
<path opacity="0.5" d="M24.541 42.2858C34.6399 42.2858 42.8267 34.099 42.8267 24.0001C42.8267 13.9012 34.6399 5.71436 24.541 5.71436C14.4421 5.71436 6.25525 13.9012 6.25525 24.0001C6.25525 34.099 14.4421 42.2858 24.541 42.2858Z" fill="url(#paint1_radial_7_739)"/>
<path d="M30.381 15.7488C30.5067 15.0288 31.3638 14.7088 32.7009 14.9373C33.8438 15.1317 36.2438 16.1945 37.5924 18.7088C37.8438 19.1773 37.3067 19.3145 37.0438 18.9945C36.141 17.9088 33.4895 16.2631 31.2267 16.1259C30.3124 16.0688 30.381 15.7488 30.381 15.7488Z" fill="url(#paint2_linear_7_739)"/>
<path d="M32.3468 19.6916C32.3468 19.6916 35.5353 20.0115 36.4268 22.423C36.4839 22.5716 36.5182 22.7316 36.5067 22.8915C36.5067 23.2116 36.2096 23.5544 35.6382 23.2458C32.1411 21.3144 30.1182 22.2287 28.6096 22.8573C28.0268 23.1087 27.501 22.5144 27.6839 21.9887C27.7296 21.8401 27.7754 21.6801 27.8553 21.543C29.1696 19.3487 32.3468 19.6916 32.3468 19.6916Z" fill="url(#paint3_radial_7_739)"/>
<path d="M32.2782 20.4458C32.2782 20.4458 34.8724 20.7087 36.4953 22.6973C36.4839 22.6058 36.461 22.5144 36.4267 22.423C35.5353 20.0115 32.3467 19.6916 32.3467 19.6916C32.3467 19.6916 29.1582 19.3487 27.8553 21.543C27.8096 21.623 27.7639 21.7144 27.741 21.8058C29.6839 20.1716 32.2782 20.4458 32.2782 20.4458Z" fill="url(#paint4_linear_7_739)"/>
<path d="M36.8839 27.097C36.7467 27.0398 36.5981 27.0398 36.461 27.0741C32.5981 28.1712 28.5981 28.7313 24.541 28.7313C20.4953 28.7313 16.4839 28.1712 12.621 27.0741C12.4838 27.0284 12.3353 27.0398 12.1981 27.097C11.7752 27.2684 11.1238 27.897 11.9924 30.3084C13.3067 33.3826 16.7239 38.7884 24.5524 38.7884C32.3467 38.7884 35.7867 33.3712 37.101 30.297C37.9581 27.897 37.3067 27.2684 36.8839 27.097Z" fill="url(#paint5_radial_7_739)"/>
<path d="M18.701 15.7488C18.5753 15.0288 17.7181 14.7088 16.381 14.9373C15.2382 15.1317 12.8382 16.1945 11.4896 18.7088C11.2381 19.1773 11.7753 19.3145 12.0381 18.9945C12.941 17.9088 15.5925 16.2631 17.8553 16.1259C18.7581 16.0688 18.701 15.7488 18.701 15.7488Z" fill="url(#paint6_linear_7_739)"/>
<path d="M16.7238 19.6916C16.7238 19.6916 13.5352 20.0115 12.6438 22.423C12.5867 22.5716 12.5524 22.7316 12.5638 22.8915C12.5638 23.2116 12.8609 23.5544 13.4324 23.2458C16.9295 21.3144 18.9524 22.2287 20.461 22.8573C21.0438 23.1087 21.5695 22.5144 21.3866 21.9887C21.3409 21.8401 21.2952 21.6801 21.2152 21.543C19.9124 19.3487 16.7238 19.6916 16.7238 19.6916Z" fill="url(#paint7_radial_7_739)"/>
<path d="M16.7924 20.4458C16.7924 20.4458 14.1981 20.7087 12.5752 22.6973C12.5866 22.6058 12.6095 22.5144 12.6438 22.423C13.5352 20.0115 16.7238 19.6916 16.7238 19.6916C16.7238 19.6916 19.9124 19.3487 21.2152 21.543C21.2609 21.623 21.3066 21.7144 21.3295 21.8058C19.3866 20.1716 16.7924 20.4458 16.7924 20.4458Z" fill="url(#paint8_linear_7_739)"/>
<path d="M10.6096 30.6287C10.6782 33.0287 8.51819 34.4001 6.67817 34.08C4.84963 33.7601 3.39821 31.9315 4.06106 29.7372C5.58106 24.7315 12.3468 23.8286 12.3468 23.8286C12.3468 23.8286 10.5182 27.3944 10.6096 30.6287Z" fill="url(#paint9_linear_7_739)"/>
<path d="M8.18675 30.1715C6.73535 32.0343 3.52392 30.9944 4.52963 28.6058C4.34678 28.9601 4.18678 29.3372 4.06106 29.7486C3.39821 31.9429 4.84963 33.7829 6.67817 34.0915C8.50679 34.4115 10.6668 33.0401 10.6096 30.6401C10.5296 27.4058 12.3468 23.8401 12.3468 23.8401C8.67821 27.4972 8.89535 29.2572 8.18675 30.1715Z" fill="url(#paint10_linear_7_739)"/>
<path d="M9.98091 29.0515C9.29523 32.9258 4.65521 32.8686 3.93521 30.2629C3.62665 32.2172 4.98664 33.7943 6.67808 34.08C8.50664 34.4001 10.6666 33.0287 10.6095 30.6287C10.5295 27.3944 12.3466 23.8286 12.3466 23.8286C12.3466 23.8286 10.5409 25.8744 9.98091 29.0515Z" fill="url(#paint11_linear_7_739)"/>
<path d="M9.32953 31.3029C7.66093 33.7943 4.67809 32.6515 3.88953 30.8115C3.88953 31.6572 4.20952 32.4115 4.71238 32.9943C7.66093 35.2572 10.5181 32.4229 10.5981 30.7772C10.5981 30.7315 10.5981 30.6858 10.5981 30.6401C10.5981 30.5829 10.5981 30.5258 10.5981 30.4572C10.5866 27.2687 12.3352 23.8401 12.3352 23.8401C9.77521 27.5201 11.3752 28.2515 9.32953 31.3029Z" fill="url(#paint12_linear_7_739)"/>
<path opacity="0.75" d="M12.3468 23.8286C12.3468 23.8286 7.51247 26.2858 7.08959 28.6172C6.66677 30.9486 4.4039 29.8972 4.91819 28.6515C5.83247 26.4686 9.48959 24.4001 12.3468 23.8286Z" fill="url(#paint13_linear_7_739)"/>
<path d="M24.541 37.943C27.7753 37.943 30.2096 36.9487 32.0267 35.5887C30.0267 34.6859 27.5696 34.0916 24.541 34.0916C21.5124 34.0916 19.0439 34.6859 17.0439 35.5887C18.861 36.9487 21.2953 37.943 24.541 37.943Z" fill="url(#paint14_radial_7_739)"/>
<path d="M38.4725 30.6287C38.4039 33.0287 40.5639 34.4001 42.4039 34.08C44.2325 33.7601 45.6839 31.9315 45.0211 29.7372C43.501 24.7315 36.7353 23.8286 36.7353 23.8286C36.7353 23.8286 38.5525 27.3944 38.4725 30.6287Z" fill="url(#paint15_linear_7_739)"/>
<path d="M40.8953 30.1715C42.3467 32.0343 45.5582 30.9944 44.5525 28.6058C44.7353 28.9601 44.8953 29.3372 45.0211 29.7486C45.6839 31.9429 44.2325 33.7829 42.4039 34.0915C40.5754 34.4115 38.4154 33.0401 38.4725 30.6401C38.5525 27.4058 36.7353 23.8401 36.7353 23.8401C40.3925 27.4972 40.1753 29.2572 40.8953 30.1715Z" fill="url(#paint16_linear_7_739)"/>
<path d="M39.0896 29.0515C39.7753 32.9258 44.4153 32.8686 45.1353 30.2629C45.4439 32.2172 44.0838 33.7943 42.3924 34.08C40.5639 34.4001 38.4039 33.0287 38.4611 30.6287C38.541 27.3944 36.7239 23.8286 36.7239 23.8286C36.7239 23.8286 38.5296 25.8744 39.0896 29.0515Z" fill="url(#paint17_linear_7_739)"/>
<path d="M39.741 31.3029C41.4096 33.7943 44.3925 32.6515 45.181 30.8115C45.181 31.6572 44.861 32.4115 44.3582 32.9943C41.4096 35.2572 38.5525 32.4229 38.4725 30.7772C38.4725 30.7315 38.4725 30.6858 38.4725 30.6401C38.4725 30.5829 38.4725 30.5258 38.4725 30.4572C38.4839 27.2687 36.7353 23.8401 36.7353 23.8401C39.3068 27.5201 37.7067 28.2515 39.741 31.3029Z" fill="url(#paint18_linear_7_739)"/>
<path opacity="0.75" d="M36.7353 23.8286C36.7353 23.8286 41.5696 26.2858 41.9925 28.6172C42.4153 30.9372 44.6781 29.8972 44.1639 28.6515C43.2496 26.4686 39.5925 24.4001 36.7353 23.8286Z" fill="url(#paint19_linear_7_739)"/>
<path d="M12.5067 27.0515C12.4838 27.04 12.4495 27.04 12.4267 27.04C12.1638 27.0629 10.9067 27.3258 11.981 30.3086C12.5067 31.5543 13.3867 33.1657 14.7581 34.6629C13.4781 33.1429 15.0553 32.2972 17.8781 32.6401C20.701 32.9829 24.541 32.9829 24.541 32.9829V28.7315C20.4495 28.7429 16.4038 28.1715 12.5067 27.0515Z" fill="url(#paint20_linear_7_739)"/>
<path d="M36.5637 27.0515C36.5866 27.04 36.6209 27.04 36.6438 27.04C36.9066 27.0629 38.1638 27.3258 37.0895 30.3086C36.5638 31.5543 35.6838 33.1657 34.3124 34.6629C35.5923 33.1429 34.0152 32.2972 31.1924 32.6401C28.3695 32.9829 24.5295 32.9829 24.5295 32.9829V28.7315C28.6209 28.7429 32.6666 28.1715 36.5637 27.0515Z" fill="url(#paint21_linear_7_739)"/>
<path d="M35.398 31.0172C35.9238 30.8915 36.3238 30.4457 36.3695 29.8971L36.5638 27.9429C32.6666 29.04 28.6323 29.6 24.5409 29.6C20.4609 29.6 16.4152 29.04 12.5181 27.9429L12.7123 29.8971C12.7695 30.4343 13.158 30.8915 13.6837 31.0172C17.2266 31.8629 20.8723 32.2857 24.5409 32.2857C28.2095 32.2857 31.8552 31.8629 35.398 31.0172Z" fill="url(#paint22_radial_7_739)"/>
<defs>
<radialGradient id="paint0_radial_7_739" cx="0" cy="0" r="1" gradientUnits="userSpaceOnUse" gradientTransform="translate(20.9405 16.5921) scale(22.0594 22.0594)">
<stop stop-color="#FFE030"/>
<stop offset="1" stop-color="#FFB92E"/>
</radialGradient>
<radialGradient id="paint1_radial_7_739" cx="0" cy="0" r="1" gradientUnits="userSpaceOnUse" gradientTransform="translate(20.9405 16.5921) scale(17.3551)">
<stop stop-color="#FFEA5F"/>
<stop offset="1" stop-color="#FFBC47" stop-opacity="0"/>
</radialGradient>
<linearGradient id="paint2_linear_7_739" x1="33.9652" y1="17.6106" x2="34.2906" y2="15.7115" gradientUnits="userSpaceOnUse">
<stop offset="0.00132565" stop-color="#3C2200"/>
<stop offset="1" stop-color="#7A4400"/>
</linearGradient>
<radialGradient id="paint3_radial_7_739" cx="0" cy="0" r="1" gradientUnits="userSpaceOnUse" gradientTransform="translate(32.1686 21.4955) rotate(5.868) scale(3.44648 1.66282)">
<stop offset="0.00132565" stop-color="#7A4400"/>
<stop offset="1" stop-color="#643800"/>
</radialGradient>
<linearGradient id="paint4_linear_7_739" x1="32.461" y1="18.686" x2="32.246" y2="20.9023" gradientUnits="userSpaceOnUse">
<stop offset="0.00132565" stop-color="#3C2200"/>
<stop offset="1" stop-color="#512D00"/>
</linearGradient>
<radialGradient id="paint5_radial_7_739" cx="0" cy="0" r="1" gradientUnits="userSpaceOnUse" gradientTransform="translate(24.5383 32.9274) scale(10.0733)">
<stop offset="0.00132565" stop-color="#7A4400"/>
<stop offset="1" stop-color="#643800"/>
</radialGradient>
<linearGradient id="paint6_linear_7_739" x1="15.0913" y1="17.5959" x2="14.7659" y2="15.6968" gradientUnits="userSpaceOnUse">
<stop offset="0.00132565" stop-color="#3C2200"/>
<stop offset="1" stop-color="#7A4400"/>
</linearGradient>
<radialGradient id="paint7_radial_7_739" cx="0" cy="0" r="1" gradientUnits="userSpaceOnUse" gradientTransform="translate(16.8698 21.4962) rotate(174.132) scale(3.44648 1.66282)">
<stop offset="0.00132565" stop-color="#7A4400"/>
<stop offset="1" stop-color="#643800"/>
</radialGradient>
<linearGradient id="paint8_linear_7_739" x1="16.5952" y1="18.6839" x2="16.8102" y2="20.9003" gradientUnits="userSpaceOnUse">
<stop offset="0.00132565" stop-color="#3C2200"/>
<stop offset="1" stop-color="#512D00"/>
</linearGradient>
<linearGradient id="paint9_linear_7_739" x1="4.20308" y1="23.9912" x2="12.0316" y2="31.9911" gradientUnits="userSpaceOnUse">
<stop offset="0.0723628" stop-color="#17BBFE"/>
<stop offset="0.2085" stop-color="#D1F2FF"/>
<stop offset="0.668" stop-color="#80DAFE"/>
<stop offset="1" stop-color="#0099D6"/>
</linearGradient>
<linearGradient id="paint10_linear_7_739" x1="13.9296" y1="35.9165" x2="4.101" y2="22.2783" gradientUnits="userSpaceOnUse">
<stop stop-color="#D1F2FF"/>
<stop offset="0.668" stop-color="#80DAFE"/>
<stop offset="1" stop-color="#0099D6"/>
</linearGradient>
<linearGradient id="paint11_linear_7_739" x1="6.22411" y1="22.3929" x2="11.1384" y2="35.9357" gradientUnits="userSpaceOnUse">
<stop offset="0.566" stop-color="#80DAFE"/>
<stop offset="1" stop-color="#0099D6"/>
</linearGradient>
<linearGradient id="paint12_linear_7_739" x1="6.79699" y1="23.0495" x2="10.3018" y2="35.0114" gradientUnits="userSpaceOnUse">
<stop offset="0.566" stop-color="#80DAFE"/>
<stop offset="1" stop-color="#0099D6"/>
</linearGradient>
<linearGradient id="paint13_linear_7_739" x1="7.84415" y1="31.998" x2="9.44417" y2="19.998" gradientUnits="userSpaceOnUse">
<stop stop-color="white"/>
<stop offset="1" stop-color="#80DAFE"/>
</linearGradient>
<radialGradient id="paint14_radial_7_739" cx="0" cy="0" r="1" gradientUnits="userSpaceOnUse" gradientTransform="translate(24.6891 36.4692) scale(8.34852 2.52377)">
<stop offset="0.2479" stop-color="#FF0000"/>
<stop offset="1" stop-color="#C20000"/>
</radialGradient>
<linearGradient id="paint15_linear_7_739" x1="44.8736" y1="23.9912" x2="37.0451" y2="31.9911" gradientUnits="userSpaceOnUse">
<stop offset="0.0723628" stop-color="#17BBFE"/>
<stop offset="0.2085" stop-color="#D1F2FF"/>
<stop offset="0.668" stop-color="#80DAFE"/>
<stop offset="1" stop-color="#0099D6"/>
</linearGradient>
<linearGradient id="paint16_linear_7_739" x1="35.1471" y1="35.9165" x2="44.9757" y2="22.2783" gradientUnits="userSpaceOnUse">
<stop stop-color="#D1F2FF"/>
<stop offset="0.668" stop-color="#80DAFE"/>
<stop offset="1" stop-color="#0099D6"/>
</linearGradient>
<linearGradient id="paint17_linear_7_739" x1="42.8525" y1="22.3929" x2="37.9382" y2="35.9357" gradientUnits="userSpaceOnUse">
<stop offset="0.566" stop-color="#80DAFE"/>
<stop offset="1" stop-color="#0099D6"/>
</linearGradient>
<linearGradient id="paint18_linear_7_739" x1="42.2796" y1="23.0495" x2="38.7749" y2="35.0114" gradientUnits="userSpaceOnUse">
<stop offset="0.566" stop-color="#80DAFE"/>
<stop offset="1" stop-color="#0099D6"/>
</linearGradient>
<linearGradient id="paint19_linear_7_739" x1="41.2325" y1="31.998" x2="39.6325" y2="19.998" gradientUnits="userSpaceOnUse">
<stop stop-color="white"/>
<stop offset="1" stop-color="#80DAFE"/>
</linearGradient>
<linearGradient id="paint20_linear_7_739" x1="11.5579" y1="30.8569" x2="24.5383" y2="30.8569" gradientUnits="userSpaceOnUse">
<stop offset="0.00132565" stop-color="#3C2200"/>
<stop offset="1" stop-color="#512D00"/>
</linearGradient>
<linearGradient id="paint21_linear_7_739" x1="37.5154" y1="30.8569" x2="24.5351" y2="30.8569" gradientUnits="userSpaceOnUse">
<stop offset="0.00132565" stop-color="#3C2200"/>
<stop offset="1" stop-color="#512D00"/>
</linearGradient>
<radialGradient id="paint22_radial_7_739" cx="0" cy="0" r="1" gradientUnits="userSpaceOnUse" gradientTransform="translate(24.5382 30.1175) scale(22.0909 22.0909)">
<stop offset="0.00132565" stop-color="white"/>
<stop offset="1" stop-color="#A9BCBE"/>
</radialGradient>
</defs>
</svg>

<svg width="49" height="48" fill="none" xmlns="http://www.w3.org/2000/svg"><path d="M24.541 42.286c10.099 0 18.286-8.187 18.286-18.286 0-10.099-8.187-18.286-18.286-18.286C14.442 5.714 6.255 13.901 6.255 24c0 10.099 8.187 18.286 18.286 18.286z" fill="url(#a)"/><path opacity=".5" d="M24.541 42.286c10.099 0 18.286-8.187 18.286-18.286 0-10.099-8.187-18.286-18.286-18.286C14.442 5.714 6.255 13.901 6.255 24c0 10.099 8.187 18.286 18.286 18.286z" fill="url(#b)"/><path d="M30.381 15.749c.126-.72.983-1.04 2.32-.812 1.143.195 3.543 1.258 4.891 3.772.252.468-.285.605-.548.285-.903-1.085-3.554-2.73-5.817-2.868-.915-.057-.846-.377-.846-.377z" fill="url(#c)"/><path d="M32.347 19.692s3.188.32 4.08 2.731c.057.149.091.309.08.469 0 .32-.297.662-.869.354-3.497-1.932-5.52-1.017-7.028-.389-.583.252-1.109-.343-.926-.868.046-.149.091-.309.171-.446 1.315-2.194 4.492-1.851 4.492-1.851z" fill="url(#d)"/><path d="M32.278 20.446s2.594.263 4.217 2.251a1.202 1.202 0 0 0-.068-.274c-.892-2.411-4.08-2.731-4.08-2.731s-3.189-.343-4.492 1.851a1.08 1.08 0 0 0-.114.263c1.943-1.634 4.537-1.36 4.537-1.36z" fill="url(#e)"/><path d="M36.884 27.097a.672.672 0 0 0-.423-.023 43.57 43.57 0 0 1-11.92 1.657 43.63 43.63 0 0 1-11.92-1.657.601.601 0 0 0-.423.023c-.423.171-1.074.8-.206 3.211 1.315 3.075 4.732 8.48 12.56 8.48 7.795 0 11.235-5.417 12.549-8.491.857-2.4.206-3.029-.217-3.2z" fill="url(#f)"/><path d="M18.701 15.749c-.126-.72-.983-1.04-2.32-.812-1.143.195-3.543 1.258-4.891 3.772-.252.468.285.605.548.285.903-1.085 3.554-2.73 5.817-2.868.903-.057.846-.377.846-.377z" fill="url(#g)"/><path d="M16.724 19.692s-3.189.32-4.08 2.731a1.098 1.098 0 0 0-.08.469c0 .32.297.662.868.354 3.498-1.932 5.52-1.017 7.029-.389.583.252 1.109-.343.926-.868-.046-.149-.092-.309-.172-.446-1.303-2.194-4.491-1.851-4.491-1.851z" fill="url(#h)"/><path d="M16.792 20.446s-2.594.263-4.217 2.251c.012-.091.035-.183.069-.274.891-2.411 4.08-2.731 4.08-2.731s3.188-.343 4.491 1.851c.046.08.092.171.114.263-1.942-1.634-4.537-1.36-4.537-1.36z" fill="url(#i)"/><path d="M10.61 30.629c.068 2.4-2.092 3.771-3.932 3.451-1.828-.32-3.28-2.148-2.617-4.343 1.52-5.005 8.286-5.908 8.286-5.908s-1.829 3.565-1.737 6.8z" fill="url(#j)"/><path d="M8.187 30.172c-1.452 1.862-4.663.822-3.657-1.566a6.835 6.835 0 0 0-.469 1.143c-.663 2.194.789 4.034 2.617 4.343 1.829.32 3.989-1.052 3.932-3.452-.08-3.234 1.737-6.8 1.737-6.8-3.669 3.657-3.452 5.417-4.16 6.332z" fill="url(#k)"/><path d="M9.98 29.052c-.685 3.874-5.325 3.817-6.045 1.21-.308 1.955 1.052 3.532 2.743 3.818 1.829.32 3.989-1.051 3.932-3.451-.08-3.235 1.737-6.8 1.737-6.8s-1.806 2.045-2.366 5.223z" fill="url(#l)"/><path d="M9.33 31.303c-1.67 2.491-4.652 1.348-5.44-.492 0 .846.32 1.6.822 2.183 2.949 2.263 5.806-.571 5.886-2.217v-.32c-.011-3.188 1.737-6.617 1.737-6.617-2.56 3.68-.96 4.412-3.005 7.463z" fill="url(#m)"/><path opacity=".75" d="M12.347 23.829s-4.835 2.457-5.257 4.788c-.423 2.332-2.686 1.28-2.172.034.914-2.182 4.572-4.25 7.429-4.822z" fill="url(#n)"/><path d="M24.541 37.943c3.234 0 5.669-.994 7.486-2.354-2-.903-4.457-1.497-7.486-1.497s-5.497.594-7.497 1.497c1.817 1.36 4.251 2.354 7.497 2.354z" fill="url(#o)"/><path d="M38.472 30.629c-.068 2.4 2.092 3.771 3.932 3.451 1.828-.32 3.28-2.148 2.617-4.343-1.52-5.005-8.286-5.908-8.286-5.908s1.818 3.565 1.737 6.8z" fill="url(#p)"/><path d="M40.895 30.172c1.452 1.862 4.663.822 3.657-1.566.183.354.343.731.47 1.143.662 2.194-.79 4.034-2.618 4.343-1.829.32-3.989-1.052-3.932-3.452.08-3.234-1.737-6.8-1.737-6.8 3.657 3.657 3.44 5.417 4.16 6.332z" fill="url(#q)"/><path d="M39.09 29.052c.685 3.874 5.325 3.817 6.045 1.21.309 1.955-1.051 3.532-2.743 3.818-1.828.32-3.988-1.051-3.93-3.451.079-3.235-1.738-6.8-1.738-6.8s1.806 2.045 2.366 5.223z" fill="url(#r)"/><path d="M39.741 31.303c1.669 2.491 4.651 1.348 5.44-.492 0 .846-.32 1.6-.823 2.183-2.948 2.263-5.805-.571-5.886-2.217v-.32c.012-3.188-1.737-6.617-1.737-6.617 2.572 3.68.972 4.412 3.006 7.463z" fill="url(#s)"/><path opacity=".75" d="M36.735 23.829s4.835 2.457 5.258 4.788c.422 2.32 2.685 1.28 2.17.034-.913-2.182-4.57-4.25-7.428-4.822z" fill="url(#t)"/><path d="M12.507 27.052c-.023-.012-.057-.012-.08-.012-.263.023-1.52.286-.446 3.269a15.354 15.354 0 0 0 2.777 4.354c-1.28-1.52.297-2.366 3.12-2.023 2.823.343 6.663.343 6.663.343v-4.251a43.108 43.108 0 0 1-12.034-1.68z" fill="url(#u)"/><path d="M36.564 27.052c.023-.012.057-.012.08-.012.263.023 1.52.286.446 3.269a15.354 15.354 0 0 1-2.778 4.354c1.28-1.52-.297-2.366-3.12-2.023-2.823.343-6.663.343-6.663.343v-4.251c4.092.01 8.138-.56 12.035-1.68z" fill="url(#v)"/><path d="M35.398 31.017c.526-.125.926-.571.971-1.12l.195-1.954A44.309 44.309 0 0 1 24.54 29.6c-4.08 0-8.126-.56-12.023-1.657l.194 1.954c.058.537.446.995.972 1.12a46.767 46.767 0 0 0 10.857 1.269c3.668 0 7.314-.423 10.857-1.269z" fill="url(#w)"/><defs><linearGradient id="c" x1="33.965" y1="17.611" x2="34.291" y2="15.711" gradientUnits="userSpaceOnUse"><stop offset=".001" stop-color="#3C2200"/><stop offset="1" stop-color="#7A4400"/></linearGradient><linearGradient id="e" x1="32.461" y1="18.686" x2="32.246" y2="20.902" gradientUnits="userSpaceOnUse"><stop offset=".001" stop-color="#3C2200"/><stop offset="1" stop-color="#512D00"/></linearGradient><linearGradient id="g" x1="15.091" y1="17.596" x2="14.766" y2="15.697" gradientUnits="userSpaceOnUse"><stop offset=".001" stop-color="#3C2200"/><stop offset="1" stop-color="#7A4400"/></linearGradient><linearGradient id="i" x1="16.595" y1="18.684" x2="16.81" y2="20.9" gradientUnits="userSpaceOnUse"><stop offset=".001" stop-color="#3C2200"/><stop offset="1" stop-color="#512D00"/></linearGradient><linearGradient id="j" x1="4.203" y1="23.991" x2="12.032" y2="31.991" gradientUnits="userSpaceOnUse"><stop offset=".072" stop-color="#17BBFE"/><stop offset=".208" stop-color="#D1F2FF"/><stop offset=".668" stop-color="#80DAFE"/><stop offset="1" stop-color="#0099D6"/></linearGradient><linearGradient id="k" x1="13.93" y1="35.916" x2="4.101" y2="22.278" gradientUnits="userSpaceOnUse"><stop stop-color="#D1F2FF"/><stop offset=".668" stop-color="#80DAFE"/><stop offset="1" stop-color="#0099D6"/></linearGradient><linearGradient id="l" x1="6.224" y1="22.393" x2="11.138" y2="35.936" gradientUnits="userSpaceOnUse"><stop offset=".566" stop-color="#80DAFE"/><stop offset="1" stop-color="#0099D6"/></linearGradient><linearGradient id="m" x1="6.797" y1="23.049" x2="10.302" y2="35.011" gradientUnits="userSpaceOnUse"><stop offset=".566" stop-color="#80DAFE"/><stop offset="1" stop-color="#0099D6"/></linearGradient><linearGradient id="n" x1="7.844" y1="31.998" x2="9.444" y2="19.998" gradientUnits="userSpaceOnUse"><stop stop-color="#fff"/><stop offset="1" stop-color="#80DAFE"/></linearGradient><linearGradient id="p" x1="44.874" y1="23.991" x2="37.045" y2="31.991" gradientUnits="userSpaceOnUse"><stop offset=".072" stop-color="#17BBFE"/><stop offset=".208" stop-color="#D1F2FF"/><stop offset=".668" stop-color="#80DAFE"/><stop offset="1" stop-color="#0099D6"/></linearGradient><linearGradient id="q" x1="35.147" y1="35.916" x2="44.976" y2="22.278" gradientUnits="userSpaceOnUse"><stop stop-color="#D1F2FF"/><stop offset=".668" stop-color="#80DAFE"/><stop offset="1" stop-color="#0099D6"/></linearGradient><linearGradient id="r" x1="42.852" y1="22.393" x2="37.938" y2="35.936" gradientUnits="userSpaceOnUse"><stop offset=".566" stop-color="#80DAFE"/><stop offset="1" stop-color="#0099D6"/></linearGradient><linearGradient id="s" x1="42.28" y1="23.049" x2="38.775" y2="35.011" gradientUnits="userSpaceOnUse"><stop offset=".566" stop-color="#80DAFE"/><stop offset="1" stop-color="#0099D6"/></linearGradient><linearGradient id="t" x1="41.233" y1="31.998" x2="39.633" y2="19.998" gradientUnits="userSpaceOnUse"><stop stop-color="#fff"/><stop offset="1" stop-color="#80DAFE"/></linearGradient><linearGradient id="u" x1="11.558" y1="30.857" x2="24.538" y2="30.857" gradientUnits="userSpaceOnUse"><stop offset=".001" stop-color="#3C2200"/><stop offset="1" stop-color="#512D00"/></linearGradient><linearGradient id="v" x1="37.515" y1="30.857" x2="24.535" y2="30.857" gradientUnits="userSpaceOnUse"><stop offset=".001" stop-color="#3C2200"/><stop offset="1" stop-color="#512D00"/></linearGradient><radialGradient id="a" cx="0" cy="0" r="1" gradientUnits="userSpaceOnUse" gradientTransform="translate(20.94 16.592) scale(22.0594)"><stop stop-color="#FFE030"/><stop offset="1" stop-color="#FFB92E"/></radialGradient><radialGradient id="b" cx="0" cy="0" r="1" gradientUnits="userSpaceOnUse" gradientTransform="translate(20.94 16.592) scale(17.3551)"><stop stop-color="#FFEA5F"/><stop offset="1" stop-color="#FFBC47" stop-opacity="0"/></radialGradient><radialGradient id="d" cx="0" cy="0" r="1" gradientUnits="userSpaceOnUse" gradientTransform="matrix(3.42842 .35236 -.17 1.6541 32.169 21.495)"><stop offset=".001" stop-color="#7A4400"/><stop offset="1" stop-color="#643800"/></radialGradient><radialGradient id="f" cx="0" cy="0" r="1" gradientUnits="userSpaceOnUse" gradientTransform="translate(24.538 32.927) scale(10.0733)"><stop offset=".001" stop-color="#7A4400"/><stop offset="1" stop-color="#643800"/></radialGradient><radialGradient id="h" cx="0" cy="0" r="1" gradientUnits="userSpaceOnUse" gradientTransform="matrix(-3.42842 .35236 -.17 -1.6541 16.87 21.496)"><stop offset=".001" stop-color="#7A4400"/><stop offset="1" stop-color="#643800"/></radialGradient><radialGradient id="o" cx="0" cy="0" r="1" gradientUnits="userSpaceOnUse" gradientTransform="matrix(8.34852 0 0 2.52377 24.69 36.47)"><stop offset=".248" stop-color="red"/><stop offset="1" stop-color="#C20000"/></radialGradient><radialGradient id="w" cx="0" cy="0" r="1" gradientUnits="userSpaceOnUse" gradientTransform="translate(24.538 30.117) scale(22.0909)"><stop offset=".001" stop-color="#fff"/><stop offset="1" stop-color="#A9BCBE"/></radialGradient></defs></svg>
